archdroid-icon-theme/Archdroid-Indigo/apps/scalable/system-file-manager-opensuse.svg

<svg fill="#3F51B5" height="48" viewBox="0 0 48 48" width="48" xmlns="http://www.w3.org/2000/svg"><path d="m20 5-4 4v4h-8c-2.21 0-3.980469 1.79-3.980469 4l-.019531 22c0 2.21 1.79 4 4 4h32c2.21 0 4-1.79 4-4v-22c0-2.21-1.79-4-4-4h-8v-4l-4-4zm0 4h8v4h-8zm4 9c5.522275 0 10 4.477161 10 10 0 5.522959-4.477725 10-10 10-5.522394 0-10-4.477041-10-10 0-5.522839 4.477486-10 10-10zm.048828 1.384766c-3.303825 0-5.191768 1.352607-6.423828 2.876953.94407.258939 1.601897.474628 1.814453.544922.00263-.14274.025391-1.429688.025391-1.429688l.019531-.039062.046875-.015625c.290023.042319 6.48669.957875 9.095703 2.478515.32266.189482.479804.389325.679688.59375.720754.745377 1.678398 3.849103 1.779297 4.490235l-.039063.066406c-.037299.013748-.129216.07715-.248047.158203-.608738.425588-2.030929 1.421872-3.855469 1.259766-1.641033-.146207-3.782641-1.088385-6.365234-2.789063.11369.268144.650573 1.543704.740234 1.757813l.03711.042968c.374185.193069 3.962 2.023627 5.742187 1.986329 1.436727-.028692 2.970106-.729571 3.583985-1.097657l.195312-.037109c.054634.042678.046153.124183.029297.201172-.037658.175973-.123062.498525-.181641.648437l-.046875.125c-.069816.185537-.138985.365662-.269531.472657-.361991.329471-.93949.58967-1.84375.986328-1.39883.611364-3.667004.996568-5.773437.984375-.753869-.016737-1.484224-.100905-2.125-.173828-1.337143-.152423-2.421407-.275257-3.070313.228515 1.578271 1.783763 3.883802 2.910156 6.453125 2.910156 4.757886 0 8.617188-3.856899 8.617188-8.615234 0-4.757618-3.858824-8.615234-8.617188-8.615234zm2.275391 4.560547c-.659546.009922-1.279145.256538-1.763672.710937-.519077.480699-.818765 1.13615-.84375 1.84375-.047341 1.458475 1.101465 2.689627 2.560547 2.744141.710473.022953 1.381034-.228127 1.898437-.712891.515969-.482253.813902-1.135273.839844-1.841797.049971-1.460507-1.097121-2.691659-2.558594-2.74414-.044352-.001555-.088938-.000718-.132812 0zm-.070313.78125c.060731-.003706.120074-.002272.181641 0 1.018906.035744 1.819227.888984 1.785156 1.910156-.015422.491339-.225381.950983-.585937 1.289062-.361513.33545-.831125.509323-1.326172.494141-1.018668-.037777-1.815082-.896518-1.78125-1.916016.015541-.49349.227533-.94875.585937-1.285156.314531-.294803.714915-.466246 1.140625-.492187zm.486328.923828c-.454162 0-.822265.246015-.822265.548828 0 .3009.368103.548828.822265.548828.452728 0 .81836-.24745.81836-.548828 0-.302813-.365632-.548828-.81836-.548828z" fill="#3F51B5"/></svg>

<svg fill="#3F51B5" height="48" version="1.1" viewBox="0 0 48 48" width="48" xmlns="http://www.w3.org/2000/svg"><path d="M20 5L16 9 16 13 8 13C5.79 13 4.019531 14.79 4.019531 17L4 39C4 41.21 5.79 43 8 43L40 43C42.21 43 44 41.21 44 39L44 17C44 14.79 42.21 13 40 13L32 13 32 9 28 5 20 5zM20 9L28 9 28 13 20 13 20 9zM24 18C29.522275 18 34 22.477161 34 28 34 33.522959 29.522275 38 24 38 18.477606 38 14 33.522959 14 28 14 22.477161 18.477486 18 24 18zM24.048828 19.384766C20.745003 19.384766 18.85706 20.737373 17.625 22.261719 18.56907 22.520658 19.226897 22.736347 19.439453 22.806641 19.442083 22.663901 19.464844 21.376953 19.464844 21.376953L19.484375 21.337891 19.53125 21.322266C19.821273 21.364585 26.01794 22.280141 28.626953 23.800781 28.949613 23.990263 29.106757 24.190106 29.306641 24.394531 30.027395 25.139908 30.985039 28.243634 31.085938 28.884766L31.046875 28.951172C31.009576 28.96492 30.917659 29.028322 30.798828 29.109375 30.19009 29.534963 28.767899 30.531247 26.943359 30.369141 25.302326 30.222934 23.160718 29.280756 20.578125 27.580078 20.691815 27.848222 21.228698 29.123782 21.318359 29.337891L21.355469 29.380859C21.729654 29.573928 25.317469 31.404486 27.097656 31.367188 28.534383 31.338496 30.067762 30.637617 30.681641 30.269531L30.876953 30.232422C30.931587 30.2751 30.923106 30.356605 30.90625 30.433594 30.868592 30.609567 30.783188 30.932119 30.724609 31.082031L30.677734 31.207031C30.607918 31.392568 30.538749 31.572693 30.408203 31.679688 30.046212 32.009159 29.468713 32.269358 28.564453 32.666016 27.165623 33.27738 24.897449 33.662584 22.791016 33.650391 22.037147 33.633654 21.306792 33.549486 20.666016 33.476563 19.328873 33.32414 18.244609 33.201306 17.595703 33.705078 19.173974 35.488841 21.479505 36.615234 24.048828 36.615234 28.806714 36.615234 32.666016 32.758335 32.666016 28 32.666016 23.242382 28.807192 19.384766 24.048828 19.384766zM26.324219 23.945313C25.664673 23.955235 25.045074 24.201851 24.560547 24.65625 24.04147 25.136949 23.741782 25.7924 23.716797 26.5 23.669456 27.958475 24.818262 29.189627 26.277344 29.244141 26.987817 29.267094 27.658378 29.016014 28.175781 28.53125 28.69175 28.048997 28.989683 27.395977 29.015625 26.689453 29.065596 25.228946 27.918504 23.997794 26.457031 23.945313 26.412679 23.943758 26.368093 23.944595 26.324219 23.945313zM26.253906 24.726563C26.314637 24.722857 26.37398 24.724291 26.435547 24.726563 27.454453 24.762307 28.254774 25.615547 28.220703 26.636719 28.205281 27.128058 27.995322 27.587702 27.634766 27.925781 27.273253 28.261231 26.803641 28.435104 26.308594 28.419922 25.289926 28.382145 24.493512 27.523404 24.527344 26.503906 24.542885 26.010416 24.754877 25.555156 25.113281 25.21875 25.427812 24.923947 25.828196 24.752504 26.253906 24.726563zM26.740234 25.650391C26.286072 25.650391 25.917969 25.896406 25.917969 26.199219 25.917969 26.500119 26.286072 26.748047 26.740234 26.748047 27.192962 26.748047 27.558594 26.500597 27.558594 26.199219 27.558594 25.896406 27.192962 25.650391 26.740234 25.650391z"/></svg>
